docs/mark-github.svg

<?xml version="1.0" encoding="UTF-8"?>
<svg xmlns="http://www.w3.org/2000/svg" xmlns:xlink="http://www.w3.org/1999/xlink" width="16px" height="16px" viewBox="0 0 16 16" version="1.1">
<g id="surface1">
<path style=" stroke:none;fill-rule:nonzero;fill:rgb(0%,0%,0%);fill-opacity:1;" d="M 8 0 C 12.421875 0 16 3.578125 16 8 C 16 11.4375 13.804688 14.492188 10.550781 15.589844 C 10.148438 15.671875 10 15.421875 10 15.210938 C 10 14.941406 10.011719 14.078125 10.011719 13.011719 C 10.011719 12.261719 9.761719 11.78125 9.46875 11.53125 C 11.25 11.328125 13.121094 10.648438 13.121094 7.578125 C 13.121094 6.699219 12.808594 5.988281 12.300781 5.429688 C 12.378906 5.230469 12.660156 4.410156 12.21875 3.308594 C 12.21875 3.308594 11.550781 3.089844 10.019531 4.128906 C 9.378906 3.949219 8.699219 3.859375 8.019531 3.859375 C 7.339844 3.859375 6.660156 3.949219 6.019531 4.128906 C 4.488281 3.101562 3.820312 3.308594 3.820312 3.308594 C 3.378906 4.410156 3.660156 5.230469 3.738281 5.429688 C 3.230469 5.988281 2.921875 6.710938 2.921875 7.578125 C 2.921875 10.640625 4.78125 11.328125 6.558594 11.53125 C 6.328125 11.730469 6.121094 12.078125 6.050781 12.601562 C 5.589844 12.808594 4.441406 13.148438 3.71875 11.941406 C 3.570312 11.699219 3.121094 11.109375 2.488281 11.121094 C 1.820312 11.128906 2.21875 11.5 2.5 11.648438 C 2.839844 11.839844 3.230469 12.550781 3.320312 12.78125 C 3.480469 13.230469 4 14.089844 6.011719 13.71875 C 6.011719 14.390625 6.019531 15.019531 6.019531 15.210938 C 6.019531 15.421875 5.871094 15.660156 5.46875 15.589844 C 2.203125 14.503906 0 11.445312 0 8 C 0 3.578125 3.578125 0 8 0 Z M 8 0 "/>
</g>
</svg>

<svg xmlns="http://www.w3.org/2000/svg" viewBox="0 0 16 16" width="16" height="16"><path d="M8 0c4.42 0 8 3.58 8 8a8.013 8.013 0 0 1-5.45 7.59c-.4.08-.55-.17-.55-.38 0-.27.01-1.13.01-2.2 0-.75-.25-1.23-.54-1.48 1.78-.2 3.65-.88 3.65-3.95 0-.88-.31-1.59-.82-2.15.08-.2.36-1.02-.08-2.12 0 0-.67-.22-2.2.82-.64-.18-1.32-.27-2-.27-.68 0-1.36.09-2 .27-1.53-1.03-2.2-.82-2.2-.82-.44 1.1-.16 1.92-.08 2.12-.51.56-.82 1.28-.82 2.15 0 3.06 1.86 3.75 3.64 3.95-.23.2-.44.55-.51 1.07-.46.21-1.61.55-2.33-.66-.15-.24-.6-.83-1.23-.82-.67.01-.27.38.01.53.34.19.73.9.82 1.13.16.45.68 1.31 2.69.94 0 .67.01 1.3.01 1.49 0 .21-.15.45-.55.38A7.995 7.995 0 0 1 0 8c0-4.42 3.58-8 8-8Z"></path></svg>
